X: 87
T:The Trip To London
% Nottingham Music Database
S:John Goodacre 1984, via PR
M:4/4
L:1/4
K:D
D/2F/2|"D""F#m"AA AA|"D""Bm7"A/2B/2A/2G/2 FA|"A7""Em"G/2A/2G/2F/2 "b""A7"EC|\
"D"DF AD/2F/2|
"D""F#m"AA AA|"D""F"A/2B/2A/2G/2 FA|"A7""Em"G/2A/2G/2F/2 "b""A7"EC|"D"D2 D::
D/2F/2|"D"Ad AF|"C"GB E3/2D/2|"A7"CE GC|"D"DF AD/2F/2|"D"Ad AF|"C"GB E3/2D/2|\
"A7"CE BC|"D"D2 D:|<end>
<start>
